X:1
T:Father Kolbe Preaching
T:Father Kolbe's Preaching
T:Wojciech Kilar
C:Wojciech Kilar
%%score { ( 1 4 ) | ( 2 3 ) }
L:1/8
Q:1/4=80
M:4/4
K:E
V:1 treble nm="Piano" snm="Pno."
V:4 treble 
V:2 bass 
V:3 bass 
V:1
"E" [B,EG]4 [B,EG]4 | [B,EG]4 [B,EG]4 | [B,EG]4 [B,EG]4 | [B,EG]4 [B,EG]4 | [GBg]4 [GBg]4 | %5
"F#m" [Aca]4 [GBg]4 |"B7" [FBf]4 [FBf]4 |"E" [GBg]4 [EGBe]4 | [GBg]4 [GBg]4 | %9
"C#m7" [GBg]4"B" [FBf]4 | [FBf]4"A5" [EFAe]4 |"B7" [DFAd]4 [Bfb]4 |"E" [GBg]4 [GBg]4 | %13
"F#m" [Aca]4"E" [GBg]4 |"A" [FAf]4 [FAf]4 |"E" [GBeg]4 [Bgb]4 |"C#m7" [egbe']4 [Gcg]4 | %17
"Amaj7" [cgc']4 [Aefa]4 |"G#m" [Gcg]4 [Gcg]4 |"E" [GBef]4 [EGBe]4 :| [B,EG]4 [B,EG]4 | %21
"^rit." [B,EG]4 [B,EG]4 | [B,EG]8 |] %23
V:2
!mf! [B,,E,G,]4 [B,,E,G,]4 | [B,,E,G,]4 [B,,E,G,]4 | [B,,E,G,]4 [B,,E,G,]4 | %3
 [B,,E,G,]4 [B,,E,G,]4 | [B,,E,G,]4 [B,,E,G,]4 | [C,F,A,]4 [B,,E,G,]4 | [B,,D,F,A,]4 [B,,D,F,A,]4 | %7
 [B,,E,G,]4 [B,,E,G,]4 | [B,,E,G,]4 [B,,E,G,]4 | [C,E,G,]4 [D,F,B,]4 | [D,F,B,]4 [C,E,A,]4 | %11
 [D,F,B,]4 [D,F,B,]4 | [B,,E,G,]4 [B,,E,G,]4 | [C,F,A,]4 [B,,E,G,]4 | [C,E,A,]4 [C,E,A,]4 | %15
 [B,,E,G,]4 [B,,E,G,]4 | [C,E,G,]4 [C,E,G,]4 | [C,E,A,]4 [C,E,A,]4 | [D,G,B,]4 [D,G,B,]4 | %19
 [E,G,B,]4 [E,G,B,]4 :| [B,,E,G,]4 [B,,E,G,]4 | [B,,E,G,]4 [B,,E,G,]4 | [B,,E,G,]8 |] %23
V:3
 z2 E,,,4 E,,,2- | E,,,2 E,,,4 E,,,2- | E,,,2 E,,,4 E,,,2- | E,,,2 E,,,4 E,,,2- | %4
 E,,,2 E,,,4 E,,,2- | E,,,2 E,,,4 E,,,2- | E,,,2 E,,,4 E,,,2- | E,,,2 E,,,4 E,,,2- | %8
 E,,,2 E,,,4 E,,,2- | E,,,2 E,,,4 E,,,2- | E,,,2 E,,,4 E,,,2- | E,,,2 E,,,4 E,,,2- | %12
 E,,,2 E,,,4 E,,,2- | E,,,2 E,,,4 E,,,2- | E,,,2 E,,,4 E,,,2- | E,,,2 E,,,4 E,,,2- | %16
 E,,,2 E,,,4 E,,,2- | E,,,2 E,,,4 E,,,2- | E,,,2 E,,,4 E,,,2- | E,,,2 E,,,4 E,,,2- :| %20
 E,,,2 E,,,4 E,,,2- | E,,,2 E,,,4 E,,,2- | E,,,8 |] %23
V:4
 x8 | x8 | x8 | x8 | x8 | x8 | x8 | x8 | x8 | x8 | x8 | x8 | x8 | x8 | x8 | x8 | x8 | x8 | %18
 z6 [GBef]2 | x8 :| x8 | x8 | x8 |] %23

